X: 1
T: la T\^ete ailleurs
C: Elisabethe Barrier
R: bour\'ee
S: Handout at 2014 NEFFA
Z: 2015 John Chambers <jc:trillian.mit.edu>
M: 3/4
L: 1/8
K: Em
BG |\
"Em"Ez EGBG | "Am"A4 AG | "D"Fz FAdc | "Em"B4 BG |\
"Em"Ez EGBG | "Am"A4 AG | "D"Fz FGAB | "Em"E4 :|
|: ef |\
"C"gz gbed | "G"Bz B2 cB | "Am"Ac BA "C"GA | "Em"Bz B2 ef |\
"C"gz gbed | "G"Bz B2 cB | "Am"Ac BA "C"G"D"F | "Em"E4 :|
